X:1
T:St. Cuthbert, 86.84
T:John Bacchus Dykes, 1861
T:St. Cuthbert, 86.84
T:Public Domain
C:John Bacchus Dykes, 1861
Z:Public Domain
%%score ( 1 2 ) ( 3 4 )
L:1/8
M:4/4
K:Eb
V:1 treble 
V:2 treble 
V:3 bass 
V:4 bass 
V:1
 [B,E]2 | [B,E]3 E [EF]2 [EG]2 | [EA]3 [EA] [EG]2 (ED) | [Ee]2 [EG]2 [EG]2 [E=A]2 | [DB]6 [DA]2 | %5
 [B,G]3 [EG] [EA]2 [_DB]2 | [Cc]2 [Dc]2 [EB]2 [EG]2 | E4 z2 A2 x2 | [EG]6 |] %9
V:2
 x2 | x8 | x6 B2 | x8 | x8 | x8 | x8 | B6 D4 | x6 |] %9
V:3
 [E,G,]2 | [E,G,]3 [E,G,] [E,A,]2 [E,B,]2 | [A,,C]2 [A,,C]2 [E,B,]2 ([E,B,][F,A,]) | %3
 [G,B,]2 [E,B,]2 [C,B,]2 [F,C]2 | [B,,B,]6 [B,,F,]2 | [E,G,]3 [E,B,] [E,C]2 [E,G,]2 | %6
 A,2 [F,A,]2 [G,B,]2 [E,B,]2 | [B,,G,]4 (F,2 B,2) x2 | [E,B,]6 |] %9
V:4
 x2 | x8 | x8 | x8 | x8 | x8 | x8 | x4 B,,4 x2 | x6 |] %9

